assets/2023/icons/dbms_dark.svg

<!-- Copyright 2000-2024 JetBrains s.r.o. and contributors. Use of this source code is governed by the Apache 2.0 license. -->
<svg width="16" height="16" viewBox="0 0 16 16" fill="none" xmlns="http://www.w3.org/2000/svg">
<path fill-rule="evenodd" clip-rule="evenodd" d="M2 3.39246H2.01664C2.07865 3.00405 2.30765 2.67483 2.59694 2.41334C2.9371 2.10586 3.40129 1.85189 3.93236 1.64885C4.99792 1.24147 6.43619 1 8 1C9.56381 1 11.0021 1.24147 12.0676 1.64885C12.5987 1.85189 13.0629 2.10586 13.4031 2.41334C13.6924 2.67483 13.9213 3.00405 13.9834 3.39246H14V12.5184H13.9974C13.9695 12.9621 13.7232 13.3344 13.4031 13.6237C13.0629 13.9312 12.5987 14.1852 12.0676 14.3882C11.0021 14.7956 9.56381 15.0371 8 15.0371C6.43619 15.0371 4.99792 14.7956 3.93236 14.3882C3.40129 14.1852 2.9371 13.9312 2.59694 13.6237C2.2768 13.3344 2.03051 12.9621 2.00263 12.5184H2V3.39246ZM3 3.60275C3 3.50293 3.05102 3.35087 3.2675 3.15519C3.48396 2.95953 3.82523 2.7604 4.28947 2.58291C5.21452 2.22925 6.52624 2 8 2C9.47376 2 10.7855 2.22925 11.7105 2.58291C12.1748 2.7604 12.516 2.95953 12.7325 3.15519C12.949 3.35087 13 3.50293 13 3.60275C13 3.70256 12.949 3.85463 12.7325 4.05031C12.516 4.24597 12.1748 4.4451 11.7105 4.62258C10.7855 4.97625 9.47376 5.2055 8 5.2055C6.52624 5.2055 5.21452 4.97625 4.28947 4.62258C3.82523 4.4451 3.48396 4.24597 3.2675 4.05031C3.05102 3.85463 3 3.70256 3 3.60275ZM3 6.54663V5.09723C3.27236 5.27221 3.58833 5.42512 3.93236 5.55665C4.99792 5.96403 6.43619 6.2055 8 6.2055C9.56381 6.2055 11.0021 5.96403 12.0676 5.55665C12.4117 5.42512 12.7276 5.27221 13 5.09723V6.54663C13 6.64645 12.949 6.79851 12.7325 6.99419C12.516 7.18985 12.1748 7.38898 11.7105 7.56647C10.7855 7.92013 9.47376 8.14938 8 8.14938C6.52624 8.14938 5.21452 7.92013 4.28947 7.56647C3.82523 7.38898 3.48396 7.18985 3.2675 6.99419C3.05102 6.79851 3 6.64645 3 6.54663ZM3 8.04112V9.49048C3 9.59029 3.05102 9.74236 3.2675 9.93804C3.48396 10.1337 3.82523 10.3328 4.28947 10.5103C5.21452 10.864 6.52624 11.0932 8 11.0932C9.47376 11.0932 10.7855 10.864 11.7105 10.5103C12.1748 10.3328 12.516 10.1337 12.7325 9.93804C12.949 9.74236 13 9.59029 13 9.49048V8.04112C12.7276 8.21609 12.4117 8.369 12.0676 8.50053C11.0021 8.90791 9.56381 9.14938 8 9.14938C6.43619 9.14938 4.99792 8.90791 3.93236 8.50053C3.58833 8.369 3.27236 8.21609 3 8.04112ZM3 10.985V12.4343C3 12.5341 3.05102 12.6862 3.2675 12.8819C3.48396 13.0775 3.82523 13.2767 4.28947 13.4542C5.21452 13.8078 6.52624 14.0371 8 14.0371C9.47376 14.0371 10.7855 13.8078 11.7105 13.4542C12.1748 13.2767 12.516 13.0775 12.7325 12.8819C12.949 12.6862 13 12.5341 13 12.4343V10.985C12.7276 11.1599 12.4117 11.3128 12.0676 11.4444C11.0021 11.8518 9.56381 12.0932 8 12.0932C6.43619 12.0932 4.99792 11.8518 3.93236 11.4444C3.58833 11.3128 3.27236 11.1599 3 10.985Z" fill="#CED0D6"/>
</svg>

<svg xmlns="http://www.w3.org/2000/svg" width="16" height="16" fill="none" viewBox="0 0 16 16"><path fill="#CED0D6" fill-rule="evenodd" d="M2 3.392h.017c.062-.388.29-.717.58-.979.34-.307.804-.561 1.335-.764C4.998 1.24 6.436 1 8 1s3.002.241 4.068.649c.53.203.995.457 1.335.764.29.262.518.591.58.98H14v9.125h-.003c-.027.444-.274.816-.594 1.106-.34.307-.804.561-1.335.764-1.066.408-2.504.65-4.068.65s-3.002-.242-4.068-.65c-.53-.203-.995-.457-1.335-.764-.32-.29-.566-.662-.594-1.106H2zm1 .21c0-.1.051-.251.268-.447.216-.195.557-.395 1.021-.572C5.215 2.229 6.526 2 8 2s2.786.23 3.71.583c.465.177.806.377 1.022.572.217.196.268.348.268.448s-.051.252-.268.447c-.216.196-.557.395-1.021.573-.925.353-2.237.582-3.711.582s-2.785-.229-3.71-.582c-.465-.178-.806-.377-1.022-.573C3.05 3.855 3 3.703 3 3.603m0 2.945v-1.45c.272.175.588.328.932.46 1.066.407 2.504.648 4.068.648s3.002-.241 4.068-.648a5 5 0 0 0 .932-.46v1.45c0 .1-.051.252-.268.447-.216.196-.557.395-1.021.572-.925.354-2.237.583-3.711.583s-2.785-.229-3.71-.583c-.465-.177-.806-.376-1.022-.572C3.05 6.8 3 6.646 3 6.547M3 8.04v1.45c0 .1.051.251.268.447.216.196.557.395 1.021.572.926.354 2.237.583 3.711.583s2.786-.229 3.71-.583c.465-.177.806-.376 1.022-.572.217-.196.268-.348.268-.448V8.041a5 5 0 0 1-.932.46c-1.066.407-2.504.648-4.068.648s-3.002-.241-4.068-.648A5 5 0 0 1 3 8.04m0 2.944v1.45c0 .1.051.251.268.447.216.196.557.395 1.021.572.926.354 2.237.583 3.711.583s2.786-.23 3.71-.583c.465-.177.806-.377 1.022-.572.217-.196.268-.348.268-.448v-1.449a5 5 0 0 1-.932.46c-1.066.407-2.504.648-4.068.648s-3.002-.241-4.068-.649A5 5 0 0 1 3 10.985" clip-rule="evenodd"/></svg>
